X: 1
T:Money Musk
M:2/2
L:1/8
S:Armitt MS
K:D major
f|eAcA eAdf|eAcA Bc/2B/2 df|eAcA cde a2|fdBe cAA:||:g|aeca eace|aeda cgB
g|gefa eaca|fdBe cAAg|aeca eace|aeda cgBg|aefa eada|caBe cAA:||
